branches/V9.0/projeqtor/view/css/customIcons/new/iconAccessRight.svg

<?xml version="1.0" encoding="utf-8"?>
<!-- Generator: Adobe Illustrator 16.0.0, SVG Export Plug-In . SVG Version: 6.00 Build 0)  -->
<!DOCTYPE svg PUBLIC "-//W3C//DTD SVG 1.1//EN" "http://www.w3.org/Graphics/SVG/1.1/DTD/svg11.dtd">
<svg version="1.1" id="Calque_1" xmlns="http://www.w3.org/2000/svg" xmlns:xlink="http://www.w3.org/1999/xlink" x="0px" y="0px"
	 width="128px" height="128px" viewBox="0 0 128 128" enable-background="new 0 0 128 128" xml:space="preserve">
<g id="Calque_2" display="none">
</g>
<sodipodi:namedview  id="namedview7" inkscape:zoom="2.8710938" bordercolor="#666666" guidetolerance="10" objecttolerance="10" borderopacity="1" showgrid="false" inkscape:cx="7.8240306" pagecolor="#ffffff" inkscape:cy="41.675131" gridtolerance="10" inkscape:window-width="1519" inkscape:window-height="845" inkscape:pageshadow="2" inkscape:window-maximized="0" inkscape:window-x="0" inkscape:current-layer="Livello_1" inkscape:pageopacity="0" inkscape:window-y="0">
	</sodipodi:namedview>
<title  id="title2"></title>
<g>
	
		<circle fill="none" stroke="#FF0000" stroke-width="5" stroke-linecap="round" stroke-linejoin="round" stroke-miterlimit="10" cx="33.182" cy="25.277" r="8.797"/>
	<path fill="none" stroke="#FF0000" stroke-width="5" stroke-linecap="round" stroke-linejoin="round" stroke-miterlimit="10" d="
		M60.477,33.869c0-15.074-12.22-27.296-27.294-27.296c-15.076,0-27.296,12.222-27.296,27.296c0,10.609,6.065,19.783,14.907,24.301
		v9.055l7.738,7.737l-8.327,8.329l6.998,6.997l-6.37,6.37l6.85,6.849l-7.048,7.048l12.183,12.183l12.932-12.933V58.096h-0.027
		C54.481,53.553,60.477,44.419,60.477,33.869z"/>
</g>
<path fill="none" stroke="#FF0000" stroke-width="5" stroke-linecap="round" stroke-linejoin="round" stroke-miterlimit="10" d="
	M60.477,122.934l0.525-0.001c4.097-0.013,6.58-0.021,7.507-0.071c0.055-0.043,0.114-0.097,0.168-0.149l0.034-4.354l0.048-5.6
	l0.028-3.635l3.467-1.092l1.711-0.539c2.408-0.76,4.244-1.508,6.773-2.764c3.028-1.5,3.573-1.771,4.854-1.771
	c2.178,0,2.473,0.295,7.411,5.214c1.089,1.087,2.515,2.511,3.238,3.117c0.937-0.782,2.967-2.816,5.635-5.487l0.218-0.218
	c2.76-2.765,4.854-4.863,5.614-5.765c-0.563-0.623-1.61-1.731-3.142-3.27l-3.854-3.863l-2.643-2.649l1.799-3.282l0.563-1.027
	c1.353-2.474,2.93-6.179,3.666-8.611l0.396-1.311l1.065-3.519l3.676-0.031l5.605-0.047l4.363-0.035
	c0.072-0.073,0.148-0.16,0.199-0.231V56.033c-0.051-0.072-0.127-0.16-0.199-0.233l-4.354-0.036l-5.6-0.046l-3.641-0.03l-1.09-3.472
	l-0.553-1.761c-0.753-2.389-1.599-4.467-2.832-6.947l-1.222-2.452l-1.601-3.214l2.535-2.542l3.785-3.797
	c1.094-1.096,2.528-2.535,3.135-3.259c-0.789-0.968-2.914-3.111-5.709-5.933l-0.27-0.272c-2.602-2.625-4.579-4.619-5.477-5.371
	h-0.062c-0.707,0.587-2.162,2.035-3.267,3.134c-4.846,4.82-5.242,5.214-7.43,5.214c-1.324,0-2.025-0.356-4.643-1.682
	c-2.311-1.171-4.57-2.099-6.916-2.836l-1.76-0.554l-3.471-1.091l-0.029-3.637L68.69,9.618l-0.035-4.354
	c-0.072-0.073-0.16-0.148-0.23-0.2h-7.948"/>
<line fill="none" stroke="#FF0000" stroke-width="5" stroke-linecap="round" stroke-linejoin="round" stroke-miterlimit="10" x1="54.42" y1="63.999" x2="88.186" y2="63.999"/>
<line fill="none" stroke="#FF0000" stroke-width="5" stroke-linecap="round" stroke-linejoin="round" stroke-miterlimit="10" x1="54.42" y1="78.116" x2="88.186" y2="78.116"/>
<line fill="none" stroke="#FF0000" stroke-width="5" stroke-linecap="round" stroke-linejoin="round" stroke-miterlimit="10" x1="54.42" y1="92.435" x2="88.186" y2="92.435"/>
</svg>

<?xml version="1.0" encoding="UTF-8" standalone="no"?>
<!DOCTYPE svg PUBLIC "-//W3C//DTD SVG 1.1//EN" "http://www.w3.org/Graphics/SVG/1.1/DTD/svg11.dtd">
<svg width="100%" height="100%" viewBox="0 0 128 128" version="1.1" xmlns="http://www.w3.org/2000/svg" xmlns:xlink="http://www.w3.org/1999/xlink" xml:space="preserve" xmlns:serif="http://www.serif.com/" style="fill-rule:evenodd;clip-rule:evenodd;stroke-linecap:round;stroke-linejoin:round;stroke-miterlimit:10;">
    <g>
        <circle cx="33.182" cy="25.277" r="8.797" style="fill:none;stroke:rgb(255,0,0);stroke-width:5px;"/>
        <path d="M60.477,33.869C60.477,18.795 48.257,6.573 33.183,6.573C18.107,6.573 5.887,18.795 5.887,33.869C5.887,44.478 11.952,53.652 20.794,58.17L20.794,67.225L28.532,74.962L20.205,83.291L27.203,90.288L20.833,96.658L27.683,103.507L20.635,110.555L32.818,122.738L45.75,109.805L45.75,58.096L45.723,58.096C54.481,53.553 60.477,44.419 60.477,33.869Z" style="fill:none;fill-rule:nonzero;stroke:rgb(255,0,0);stroke-width:5px;"/>
    </g>
    <path d="M60.477,122.934L61.002,122.933C65.099,122.92 67.582,122.912 68.509,122.862C68.564,122.819 68.623,122.765 68.677,122.713L68.711,118.359L68.759,112.759L68.787,109.124L72.254,108.032L73.965,107.493C76.373,106.733 78.209,105.985 80.738,104.729C83.766,103.229 84.311,102.958 85.592,102.958C87.77,102.958 88.065,103.253 93.003,108.172C94.092,109.259 95.518,110.683 96.241,111.289C97.178,110.507 99.208,108.473 101.876,105.802L102.094,105.584C104.854,102.819 106.948,100.721 107.708,99.819C107.145,99.196 106.098,98.088 104.566,96.549L100.712,92.686L98.069,90.037L99.868,86.755L100.431,85.728C101.784,83.254 103.361,79.549 104.097,77.117L104.493,75.806L105.558,72.287L109.234,72.256L114.839,72.209L119.202,72.174C119.274,72.101 119.35,72.014 119.401,71.943L119.401,56.033C119.35,55.961 119.274,55.873 119.202,55.8L114.848,55.764L109.248,55.718L105.607,55.688L104.517,52.216L103.964,50.455C103.211,48.066 102.365,45.988 101.132,43.508L99.91,41.056L98.309,37.842L100.844,35.3L104.629,31.503C105.723,30.407 107.157,28.968 107.764,28.244C106.975,27.276 104.85,25.133 102.055,22.311L101.785,22.039C99.183,19.414 97.206,17.42 96.308,16.668L96.246,16.668C95.539,17.255 94.084,18.703 92.979,19.802C88.133,24.622 87.737,25.016 85.549,25.016C84.225,25.016 83.524,24.66 80.906,23.334C78.595,22.163 76.336,21.235 73.99,20.498L72.23,19.944L68.759,18.853L68.73,15.216L68.69,9.618L68.655,5.264C68.583,5.191 68.495,5.116 68.425,5.064L60.477,5.064" style="fill:none;fill-rule:nonzero;stroke:rgb(255,0,0);stroke-width:5px;"/>
    <path d="M54.42,63.999L88.186,63.999" style="fill:none;fill-rule:nonzero;stroke:rgb(255,0,0);stroke-width:5px;"/>
    <path d="M54.42,78.116L88.186,78.116" style="fill:none;fill-rule:nonzero;stroke:rgb(255,0,0);stroke-width:5px;"/>
    <path d="M54.42,92.435L88.186,92.435" style="fill:none;fill-rule:nonzero;stroke:rgb(255,0,0);stroke-width:5px;"/>
</svg>
